!!!COM: des Prez, Josquin
!!!CDT: ~1450-1521/08/27
!!!OTL@@FRE: Nimphes, nap&eacute;es / Circumdederunt me
!!!AGN: Chanson
!!!SCT: NJE 30.6
!!!SCA: New Josquin Edition 30.6
!!!voices: 6
**kern	**text	**kern	**text	**kern	**text	**kern	**text	**kern	**text	**kern	**text
*staff6	*	*staff5	*	*staff4	*	*staff3	*	*staff2	*	*staff1	*
*Ivox	*	*Ivox	*	*Ivox	*	*Ivox	*	*Ivox	*	*Ivox	*
*I"Bassus	*	*I"Tenor	*	*I"Quinta pars	*	*I"Altus	*	*I"Sexta pars	*	*I"Superius	*
*I'B	*	*I'T	*	*I'Q	*	*I'Ct	*	*I'Sx	*	*I'S	*
*clefF4	*	*clefGv2	*	*clefGv2	*	*clefGv2	*	*clefGv2	*	*clefG2	*
*k[b-]	*	*k[b-]	*	*k[b-]	*	*k[b-]	*	*k[b-]	*	*k[b-]	*
*M2/1	*	*M2/1	*	*M2/1	*	*M2/1	*	*M2/1	*	*M2/1	*
*met(C|)	*	*met(C|)	*	*met(C|)	*	*met(C|)	*	*met(C|)	*	*met(C|)	*
=1-	=1-	=1-	=1-	=1-	=1-	=1-	=1-	=1-	=1-	=1-	=1-
!	!	!	!	!LO:TX:Z=6:t=Canon at the upper 5th (Quinta p.-->Sexta p., 3 breves)	!	!	!	!	!	!	!
0r	.	0F	Nim-	0r	.	0r	.	0r	.	0f	Nim-
=2	=2	=2	=2	=2	=2	=2	=2	=2	=2	=2	=2
0r	.	1G	-phes	0r	.	0B-	Nim-	0r	.	1d	-phes
.	.	1G	na-	.	.	.	.	.	.	1d	na-
=3	=3	=3	=3	=3	=3	=3	=3	=3	=3	=3	=3
0C	Nim-	2.E/	-p&eacute;-	0r	.	1G	-phes	0r	.	1.e	-p&eacute;-
.	.	4C/	.	.	.	.	.	.	.	.	.
.	.	1C	-es,	.	.	1G	na-	.	.	.	.
.	.	.	.	.	.	.	.	.	.	2c/	.
=4	=4	=4	=4	=4	=4	=4	=4	=4	=4	=4	=4
1AA	-phes	1r	.	0r	.	1.A	-p&eacute;-	0r	.	0c	-es,
1AA	na-	1F	ne-	.	.	.	.	.	.	.	.
.	.	.	.	.	.	2F/	.	.	.	.	.
=5	=5	=5	=5	=5	=5	=5	=5	=5	=5	=5	=5
0BB-	-p&eacute;-	1F	-re-	0r	.	0F	-es,	0r	.	1r	.
.	.	1D	-i-	.	.	.	.	.	.	1d	ne-
=6	=6	=6	=6	=6	=6	=6	=6	=6	=6	=6	=6
0GG	-es,	1G	-des	0r	.	1r	.	0r	.	1d	-re-
.	.	1G	dri-	.	.	1G	ne-	.	.	1d	-i-
=7	=7	=7	=7	=7	=7	=7	=7	=7	=7	=7	=7
0C	ne-	2.E/	-a-	0r	.	1G	-re-	0r	.	1e	-des
.	.	4C/	.	.	.	.	.	.	.	.	.
.	.	1C	-des,	.	.	1G	-i-	.	.	1e	dri-
=8	=8	=8	=8	=8	=8	=8	=8	=8	=8	=8	=8
1AA	-re-	0r	.	0r	.	1A	-des	0r	.	1.c	-a-
1AA	-i-	.	.	.	.	1A	dri-	.	.	.	.
.	.	.	.	.	.	.	.	.	.	2A/	.
=9	=9	=9	=9	=9	=9	=9	=9	=9	=9	=9	=9
1D	-des	1r	.	0r	.	1.F	-a-	0r	.	0A	-des,
1D	dri-	1F	ne-	.	.	.	.	.	.	.	.
.	.	.	.	.	.	2D/	.	.	.	.	.
=10	=10	=10	=10	=10	=10	=10	=10	=10	=10	=10	=10
1.BB-	-a-	1F	-re-	0r	.	0D	-des,	0r	.	0d	Ve-
.	.	1D	-i-	.	.	.	.	.	.	.	.
2GG/	.	.	.	.	.	.	.	.	.	.	.
=11	=11	=11	=11	=11	=11	=11	=11	=11	=11	=11	=11
0GG	-des,	1G	-des	0r	.	1r	.	0r	.	1d	-nez
.	.	1G	dri-	.	.	1G	Ve-	.	.	1d	plo-
=12	=12	=12	=12	=12	=12	=12	=12	=12	=12	=12	=12
0r	.	1.E	-a-	0r	.	1G	-nez	0r	.	0g	-rez,
.	.	.	.	.	.	1G	plo-	.	.	.	.
.	.	2C/	.	.	.	.	.	.	.	.	.
=13	=13	=13	=13	=13	=13	=13	=13	=13	=13	=13	=13
1r	.	0C	-des,	0r	.	0c	-rez,	0r	.	0e	ve-
1C	Ve-	.	.	.	.	.	.	.	.	.	.
=14	=14	=14	=14	=14	=14	=14	=14	=14	=14	=14	=14
1C	-nez	1c	Ve-	0r	.	1r	.	0r	.	1e	-nez
1C	plo-	1c	-nez	.	.	1c	ve-	.	.	1e	plo-
=15	=15	=15	=15	=15	=15	=15	=15	=15	=15	=15	=15
0F	-rez	2.A/	plo-	0r	.	1c	-nez	0r	.	0a	rez
.	.	4F/	.	.	.	.	.	.	.	.	.
.	.	1F	-rez	.	.	1c	plo-	.	.	.	.
=16	=16	=16	=16	=16	=16	=16	=16	=16	=16	=16	=16
1r	.	2r	.	0r	.	0f	-rez	0r	.	1r	.
.	.	2F/	ma	.	.	.	.	.	.	.	.
1F	ma	2A/	d&eacute;-	.	.	.	.	.	.	1a	ma
.	.	2F/	-so-	.	.	.	.	.	.	.	.
=17	=17	=17	=17	=17	=17	=17	=17	=17	=17	=17	=17
1F	d&eacute;-	2.A/	-la-	0F	Cir-	1r	.	0r	.	1a	d&eacute;-
.	.	4B-\	-ti-	.	.	.	.	.	.	.	.
2F\	-so-	1c	-on,	.	.	1F	ma	.	.	1a	-so-
[2F\	-la-	.	.	.	.	.	.	.	.	.	.
=18	=18	=18	=18	=18	=18	=18	=18	=18	=18	=18	=18
4F\]	.	0r	.	1F	-cum-	2.A/	d&eacute;-	0r	.	1f	-la-
4E\	.	.	.	.	.	.	.	.	.	.	.
4D\	.	.	.	.	.	.	.	.	.	.	.
4C/	.	.	.	.	.	4F/	-so-	.	.	.	.
2D\	.	.	.	1F	-de-	2.A/	-la-	.	.	1f	-ti-
2D\	-ti-	.	.	.	.	.	.	.	.	.	.
.	.	.	.	.	.	4B-\	-ti-	.	.	.	.
=19	=19	=19	=19	=19	=19	=19	=19	=19	=19	=19	=19
0C	-on,	1r	.	0G	-de-	0c	-on,	0r	.	0e	-on,
.	.	1G	ma	.	.	.	.	.	.	.	.
=20	=20	=20	=20	=20	=20	=20	=20	=20	=20	=20	=20
1r	.	2A/	d&eacute;-	0F	-runt	1r	.	0c	Cir-	0r	.
.	.	2A/	-so-	.	.	.	.	.	.	.	.
1FF	ma	2F/	-la-	.	.	1A	ma	.	.	.	.
.	.	2F/	-ti-	.	.	.	.	.	.	.	.
=21	=21	=21	=21	=21	=21	=21	=21	=21	=21	=21	=21
1C	d&eacute;-	0E	-on,	[0G	me	2G/	d&eacute;-	1c	-cum-	0r	.
.	.	.	.	.	.	2E/	-so-	.	.	.	.
1C	-so-	.	.	.	.	[1G	-la-	1c	-de-	.	.
=22	=22	=22	=22	=22	=22	=22	=22	=22	=22	=22	=22
1BB-	-la-	0r	.	0G]	.	2G/]	.	0d	-de-	0r	.
.	.	.	.	.	.	2F/	.	.	.	.	.
1BB-	-ti-	.	.	.	.	1D	-ti-	.	.	.	.
=23	=23	=23	=23	=23	=23	=23	=23	=23	=23	=23	=23
1AA	-on,	0r	.	[0A	.	0E	-on,	0c	-runt	1r	.
1AA	ma	.	.	.	.	.	.	.	.	1e	ma
=24	=24	=24	=24	=24	=24	=24	=24	=24	=24	=24	=24
1.D	d&eacute;-	1r	.	0A]	.	1r	.	[0d	me	1f	d&eacute;-
.	.	1F	ma	.	.	1D	ma	.	.	2f/	-so-
2D\	-so-	.	.	.	.	.	.	.	.	[2f/	-la-
=25	=25	=25	=25	=25	=25	=25	=25	=25	=25	=25	=25
1D	-la-	2F/	d&eacute;-	0r	.	1.A	d&eacute;-	0d]	.	4f/]	.
.	.	.	.	.	.	.	.	.	.	4e/	.
.	.	2F/	-so-	.	.	.	.	.	.	4d/	.
.	.	.	.	.	.	.	.	.	.	4c/	.
1D	-ti-	2F/	-la-	.	.	.	.	.	.	2d/	.
.	.	2F/	-ti-	.	.	2A/	-so-	.	.	2d/	-ti-
=26	=26	=26	=26	=26	=26	=26	=26	=26	=26	=26	=26
[0AA	-on,	0E	-on,	[0A	ge-	1A	-la-	[0e	.	[0c	-on,
.	.	.	.	.	.	1A	-ti-	.	.	.	.
=27	=27	=27	=27	=27	=27	=27	=27	=27	=27	=27	=27
0AA]	.	0r	.	1A]	.	0E	-on,	0e]	.	0c]	.
.	.	.	.	1A	-ni-	.	.	.	.	.	.
=28	=28	=28	=28	=28	=28	=28	=28	=28	=28	=28	=28
1r	.	1G	Car	0B-	-tus	1r	.	0r	.	0r	.
1GG	Car	1G	je	.	.	1G	Car	.	.	.	.
=29	=29	=29	=29	=29	=29	=29	=29	=29	=29	=29	=29
0C	je	2.E/	lan-	[0G	mor-	1G	je	[0e	ge-	0g	Car
.	.	4C/	.	.	.	.	.	.	.	.	.
.	.	1C	-guis,	.	.	2.E/	lan-	.	.	.	.
.	.	.	.	.	.	4C/	.	.	.	.	.
=30	=30	=30	=30	=30	=30	=30	=30	=30	=30	=30	=30
0C	lan-	2r	.	0G]	.	1C	-guis	1e]	.	1g	je
.	.	2c\	car	.	.	.	.	.	.	.	.
.	.	1c	je	.	.	1r	.	1e	-ni-	1g	lan-
=31	=31	=31	=31	=31	=31	=31	=31	=31	=31	=31	=31
1FF	-guis	2.A/	lan-	[0F	-tis,	1C	en	0f	tus	1a	-guis
.	.	4F/	.	.	.	.	.	.	.	.	.
1FF	en	1F	-guis	.	.	1F	tel-	.	.	1a	en
=32	=32	=32	=32	=32	=32	=32	=32	=32	=32	=32	=32
1.BB-	tel-	1F	en	0F_	.	1F	-le af-	[0d	mor-	1f	tel-
.	.	[1B-	tel-	.	.	[1D	-flic-	.	.	1f	-le af-
2BB-/	-le af-	.	.	.	.	.	.	.	.	.	.
=33	=33	=33	=33	=33	=33	=33	=33	=33	=33	=33	=33
1BB-	-flic-	2B-\]	.	0F]	.	2D/]	.	0d]	.	1.f	-flic-
.	.	2B-\	-le af-	.	.	2BB-/	.	.	.	.	.
1BB-	-ti-	2B-\	-flic-	.	.	2.D/	-ti-	.	.	.	.
.	.	2B-\	-ti-	.	.	.	.	.	.	2g/	-ti-
.	.	.	.	.	.	4E/	.	.	.	.	.
=34	=34	=34	=34	=34	=34	=34	=34	=34	=34	=34	=34
0FF	-on,	0A	-on,	0r	.	0F	-on,	[0c	-tis,	0a	-on,
=35	=35	=35	=35	=35	=35	=35	=35	=35	=35	=35	=35
0F	Que	1r	.	0r	.	1r	.	0c_	.	1r	.
.	.	1f	Que	.	.	1F	Que	.	.	1a	Que
=36	=36	=36	=36	=36	=36	=36	=36	=36	=36	=36	=36
1F	mes	1f	mes	0r	.	1A	mes	0c]	.	1a	mes
1F	es-	1f	es-	.	.	2.A/	es-	.	.	1a	es-
.	.	.	.	.	.	4B-\	.	.	.	.	.
=37	=37	=37	=37	=37	=37	=37	=37	=37	=37	=37	=37
0C	-pris	[0e	-pris	0r	.	[0c	-pris,	0r	.	0g	-pris
=38	=38	=38	=38	=38	=38	=38	=38	=38	=38	=38	=38
1r	.	0e]	.	0r	.	0c]	.	0r	.	1g	sont
1C	sont	.	.	.	.	.	.	.	.	[1cc	plus
=39	=39	=39	=39	=39	=39	=39	=39	=39	=39	=39	=39
1.F	plus	0r	.	0r	.	1r	.	0r	.	2cc\]	.
.	.	.	.	.	.	.	.	.	.	2b-\	mort
.	.	.	.	.	.	1F	que	.	.	2a/	que
2E\	mort	.	.	.	.	.	.	.	.	2g/	ma-
=40	=40	=40	=40	=40	=40	=40	=40	=40	=40	=40	=40
2D\	que	0r	.	0r	.	1F	mes	0r	.	2f/	-la-
2C/	ma-	.	.	.	.	.	.	.	.	2e/	.
1BB-	-la-	.	.	.	.	1G	es-	.	.	1d	.
=41	=41	=41	=41	=41	=41	=41	=41	=41	=41	=41	=41
2AA/	-des,	1r	.	0r	.	0A	-pris	0r	.	0c	des,
2FF/	sont	.	.	.	.	.	.	.	.	.	.
[1F	plus	1c	sont	.	.	.	.	.	.	.	.
=42	=42	=42	=42	=42	=42	=42	=42	=42	=42	=42	=42
2F\]	.	1.f	plus	0r	.	1r	.	0r	.	0r	.
2E\	mort	.	.	.	.	.	.	.	.	.	.
2D\	que	.	.	.	.	1F	sont	.	.	.	.
2C/	ma-	2e\	mort	.	.	.	.	.	.	.	.
=43	=43	=43	=43	=43	=43	=43	=43	=43	=43	=43	=43
2BB-/	-la-	2d\	que	0r	.	1F	plus	0r	.	1r	.
2AA/	.	2c\	ma-	.	.	.	.	.	.	.	.
1GG	.	1B-	-la-	.	.	1G	mort	.	.	1g	sont
=44	=44	=44	=44	=44	=44	=44	=44	=44	=44	=44	=44
0FF	-des,	0A	des,	0F	do-	2.A/	que	0r	.	1.cc	plus
.	.	.	.	.	.	4B-\	.	.	.	.	.
.	.	.	.	.	.	2c\	ma-	.	.	.	.
.	.	.	.	.	.	[2d\	-la-	.	.	2b-\	mort
=45	=45	=45	=45	=45	=45	=45	=45	=45	=45	=45	=45
0r	.	1F	sont	1F	-lo-	4d\]	.	0r	.	2.a/	que
.	.	.	.	.	.	4c\	.	.	.	.	.
.	.	.	.	.	.	1c	.	.	.	.	.
.	.	.	.	.	.	.	.	.	.	4g/	ma-
.	.	1F	plus	1D	-res	.	.	.	.	1f	-la-
.	.	.	.	.	.	2Bni\	.	.	.	.	.
=46	=46	=46	=46	=46	=46	=46	=46	=46	=46	=46	=46
0r	.	1G	mort	1C	in-	0c	-des,	0r	.	1e	-des,
.	.	[1A	que	[1F	-fer-	.	.	.	.	1c	sont
=47	=47	=47	=47	=47	=47	=47	=47	=47	=47	=47	=47
1r	.	2A/]	.	1F]	.	0r	.	0c	do-	1.cc	plus
.	.	2F/	ma-	.	.	.	.	.	.	.	.
1F	que	2.A/	-la-	1F	-ni	.	.	.	.	.	.
.	.	.	.	.	.	.	.	.	.	2b-\	mort
.	.	4B-\	.	.	.	.	.	.	.	.	.
=48	=48	=48	=48	=48	=48	=48	=48	=48	=48	=48	=48
1F	mes	0c	-des,	0r	.	1r	.	1c	-lo-	2.a/	que
.	.	.	.	.	.	.	.	.	.	4g/	ma-
1F	es-	.	.	.	.	1c	que	1A	-res	1f	-la-
!	!	!	!	!LO:TX:Z=6:t=Some sources&colon; E-flat (also m. 57; cf. NJE)	!	!	!	!	!	!	!
=49	=49	=49	=49	=49	=49	=49	=49	=49	=49	=49	=49
0C	-pris	1r	.	1r	.	1c	mes	1G	in-	1e	-des,
.	.	1C	que	1E	cir-	1c	es-	[1c	-fer-	2r	.
.	.	.	.	.	.	.	.	.	.	2g/	que
=50	=50	=50	=50	=50	=50	=50	=50	=50	=50	=50	=50
1r	.	2.F/	mes	1F	-cum-	1A	-pris	1c]	.	1a	mes
.	.	4G/	.	.	.	.	.	.	.	.	.
1FF	sont	1A	es-	1F	-de-	1A	sont	1c	-ni-	1a	es-
=51	=51	=51	=51	=51	=51	=51	=51	=51	=51	=51	=51
1BB-	plus	1D	-pris	0F	-de-	1d	plus	0r	.	1f	-pris
1BB-	mort	2r	.	.	.	1d	mort	.	.	1f	sont
.	.	2D/	sont	.	.	.	.	.	.	.	.
=52	=52	=52	=52	=52	=52	=52	=52	=52	=52	=52	=52
1GG	que	1G	plus	[0G	-runt	1B-	que	1r	.	1b-	plus
1GG	ma-	1G	mort	.	.	2G/	ma-	1B-	cir-	1b-	mort
.	.	.	.	.	.	[2g\	-la-	.	.	.	.
=53	=53	=53	=53	=53	=53	=53	=53	=53	=53	=53	=53
0C	-la-	1C	que	0G]	.	4g\]	.	1c	-cum-	1g	que
.	.	.	.	.	.	4f\	.	.	.	.	.
.	.	.	.	.	.	4e\	.	.	.	.	.
.	.	.	.	.	.	4d\	.	.	.	.	.
.	.	1C	ma-	.	.	2.e\	.	1c	-de-	1g	ma-
.	.	.	.	.	.	4d\	.	.	.	.	.
=54	=54	=54	=54	=54	=54	=54	=54	=54	=54	=54	=54
1FF	-des,	1.F	-la-	[0F	me,	0f	-des,	0c	-de-	1.a	-la-
2r	.	.	.	.	.	.	.	.	.	.	.
2FF/	que	2D/	.	.	.	.	.	.	.	2f/	.
=55	=55	=55	=55	=55	=55	=55	=55	=55	=55	=55	=55
1BB-	mes	1D	-des,	0F]	.	2r	.	[0d	-runt	1f	-des,
.	.	.	.	.	.	2F/	que	.	.	.	.
1BB-	es-	2r	.	.	.	1B-	mes	.	.	2r	.
.	.	2D/	sont	.	.	.	.	.	.	2f/	sont
=56	=56	=56	=56	=56	=56	=56	=56	=56	=56	=56	=56
1GG	-pris	1G	plus	0r	.	1B-	es-	0d]	.	1b-	plus
2r	.	1G	mort	.	.	1G	-pris	.	.	1b-	mort
2GG/	sont	.	.	.	.	.	.	.	.	.	.
=57	=57	=57	=57	=57	=57	=57	=57	=57	=57	=57	=57
1C	plus	1E	que	1r	.	2r	.	[0c	me,	1g	que
.	.	.	.	.	.	2G/	sont	.	.	.	.
1C	mort	1C	ma-	1E	cir-	1c	plus	.	.	1g	ma-
=58	=58	=58	=58	=58	=58	=58	=58	=58	=58	=58	=58
1FF	que	2.F/	-la-	1F	-cum-	1c	mort	0c]	.	1.a	-la-
.	.	4G/	.	.	.	.	.	.	.	.	.
1FF	ma-	1A	.	1F	-de-	1F	que	.	.	.	.
.	.	.	.	.	.	.	.	.	.	2f/	.
=59	=59	=59	=59	=59	=59	=59	=59	=59	=59	=59	=59
0BB-	-la-	1D	-des,	0F	-de-	1F	ma-	0r	.	1f	-des,
.	.	1r	.	.	.	[1B-	-la-	.	.	2r	.
.	.	.	.	.	.	.	.	.	.	2f/	sont
=60	=60	=60	=60	=60	=60	=60	=60	=60	=60	=60	=60
1GG	-des,	1D	sont	[0G	-runt	2B-\]	.	1r	.	1b-	plus
.	.	.	.	.	.	2G/	-des,	.	.	.	.
2r	.	1G	plus	.	.	2G/	ma-	1B-	cir-	1b-	mort
2GG/	sont	.	.	.	.	[2g\	-la-	.	.	.	.
=61	=61	=61	=61	=61	=61	=61	=61	=61	=61	=61	=61
1C	plus	1G	mort	0G]	.	4g\]	.	1c	-cum-	1g	que
.	.	.	.	.	.	4f\	.	.	.	.	.
.	.	.	.	.	.	4e\	.	.	.	.	.
.	.	.	.	.	.	4d\	.	.	.	.	.
1C	mort	1C	que	.	.	2.e\	.	1c	-de-	1g	ma-
.	.	.	.	.	.	4d\	.	.	.	.	.
=62	=62	=62	=62	=62	=62	=62	=62	=62	=62	=62	=62
1FF	que	1C	ma-	[0Fl	me.	0f	-des,	0c	-de-	1.a	-la-
1FF	ma-	[1F	-la-	.	.	.	.	.	.	.	.
.	.	.	.	.	.	.	.	.	.	2f/	.
=63	=63	=63	=63	=63	=63	=63	=63	=63	=63	=63	=63
[0BB-	-la-	2F/]	.	0F_	.	2r	.	[0d	-runt	[0fl	-des.
.	.	2D/	.	.	.	2f\	sont	.	.	.	.
.	.	1D	-des,	.	.	2.f\	plus	.	.	.	.
.	.	.	.	.	.	4e\	mort	.	.	.	.
=64	=64	=64	=64	=64	=64	=64	=64	=64	=64	=64	=64
0BB-]	.	2r	.	0F_	.	2.d\	que	0d]	.	0f_	.
.	.	2D/	sont	.	.	.	.	.	.	.	.
.	.	.	.	.	.	4c\	ma-	.	.	.	.
.	.	2D/	plus	.	.	1B-	-la-	.	.	.	.
.	.	2D/	mort	.	.	.	.	.	.	.	.
=65	=65	=65	=65	=65	=65	=65	=65	=65	=65	=65	=65
[0FFl	-des.	2F/	que	0F_	.	[0Al	-des.	[0cl	-me.	0f_	.
.	.	2C/	ma-	.	.	.	.	.	.	.	.
.	.	2.F/	-la-	.	.	.	.	.	.	.	.
.	.	4E/	.	.	.	.	.	.	.	.	.
=66	=66	=66	=66	=66	=66	=66	=66	=66	=66	=66	=66
0FF]	.	0Cl	-des.	0F]	.	0A]	.	0c]	.	0f]	.
==	==	==	==	==	==	==	==	==	==	==	==
*-	*-	*-	*-	*-	*-	*-	*-	*-	*-	*-	*-
!!!RDF**kern: l=long note in original notation
!!!RDF**kern: i=editorial accidental
!!!ENC: Will Watson 19/08/2011
!!!END: 2011/08/19/
!!!EED: Jesse Rodin
!!!EEV: 2012/05/23/
!!attribution-level@Jos: 1 (secure, core group [checkmark])
!!!ONB: Translated from MusicXML and edited on 2011/09/20/ by Craig Sapp
!!muse2ps: C^@{COM}\n@{SCT}^i2I150v85,85,85,85,85,100z18l2550t200c130
